X: 1
T: Queen of May, The
C: Trad
R: Hornpipe (Swung)
O: Irish
M: 4/4
L: 1/8
K: G
Z: ABC transcription by Verge Roller
r: 32
|: B>c | "G" d>Bc>A "Em" G>gf>e | "C" e>dc>e "G" d2 c>B | "Am" A>ce>c c>BA>G | "D" F>AG>E D2 B>c |
"G" d>Bc>A G>gf>e | "C" e>dc>e "G" d>gf>e | "D" d>Bc>A B>GA>F | "G" G2 G>F G2 :|
|: c>B | "D"  A>DF>A "G" G>Bd>g | "C" e>dc>e "G" d>gd>B | "D" A>DF>A "G" G>Bd>g | "C" e>dc>e "Bm" d>gb>a |
"G" g>bf>a e>gd>f | "Em" c>eB>d "C" A>cG>B | "Am" A2 c>B "D" A>DF>A | "G" G2 G>F G2 :|
